X: 15
T:Scotch Reel,A. BF11.15
M:4/4
Q:180
C:Browne A hand
S:MS11,c1800.,Browne Coll.,Lakes
R:Reel
O:England
A:Lakes
Z:vmp.Chris Partington
K:D
e|cAee cAef|gedBg2B2|cAee cAef/g/|aeeda2e:||!
(f/g/)|aeec aeef|gedBg2B2|f/g/aee caee|"sic.NB"(f/g/) geec a2e2|!
afge fdec|B/B/B fBd2f2|A/A/A cA BGGB|A/A/A aga2A2|]
W:NB Season to taste!
